svgs/sharp-solid/square-i.svg

<svg xmlns="http://www.w3.org/2000/svg" viewBox="0 0 448 512"><!--! Font Awesome Pro 6.6.0 by @fontawesome - https://fontawesome.com License - https://fontawesome.com/license (Commercial License) Copyright 2024 Fonticons, Inc. --><path d="M448 32L0 32 0 480l448 0 0-448zM152 128l72 0 72 0 24 0 0 48-24 0-48 0 0 160 48 0 24 0 0 48-24 0-48 0-48 0-48 0-24 0 0-48 24 0 48 0 0-160-48 0-24 0 0-48 24 0z"/></svg>

<svg xmlns="http://www.w3.org/2000/svg" viewBox="0 0 448 512"><!--! Font Awesome Pro 6.4.0 by @fontawesome - https://fontawesome.com License - https://fontawesome.com/license (Commercial License) Copyright 2023 Fonticons, Inc. --><path d="M448 32H0V480H448V32zM152 128h72 72 24v48H296 248V336h48 24v48H296 248 200 152 128V336h24 48V176H152 128V128h24z"/></svg>
